X:1
T:Title
%%score { ( 1 4 ) | ( 2 3 ) }
L:1/8
Q:1/4=114
M:4/4
K:F
V:1 treble nm="Grand Piano"
V:4 treble 
V:2 bass 
V:3 bass 
V:1
 F3 G F2 C2 | F2 G2 A4 | [Ac]2 [GB]2 [EG]4 | B2 A2 F4 | F3 G F2 C2 | F2 [B,EG]2 [CFA]4 | %6
w: Thoro~Harris * * *||||||
 [CEc]2 [CEB]2 [B,EG]2 [B,EA]2 | [A,F]6 z2 | [Fd]3 [Fd] [FB]2 [Fd]2 | c2 c2 A4 | %10
w: ||||
 [GB]3 [FA] [EG]2 [GB]2 | A2 d2 c4 | [Fd]3 [Fe] [Ff]2 [Fd]2 | c2 c2 z2 _E2 | %14
w: ||||
 G2 G2 A2 [EG]2[Q:1/4=112][Q:1/4=110][Q:1/4=109][Q:1/4=107][Q:1/4=105][Q:1/4=103][Q:1/4=102][Q:1/4=100][Q:1/4=98][Q:1/4=96][Q:1/4=94][Q:1/4=93][Q:1/4=91][Q:1/4=89][Q:1/4=87] | %15
w: |
 F6 z2 |] %16
w: |
V:2
 [F,A,C]3 [F,A,C] [F,A,C]2 [F,A,]2 | [F,A,C]2 [F,B,C]2 [F,CF]4 | [C,C]2 [C,C]2 [C,B,]4 | %3
 [F,DF]2 [F,CE]2 [F,A,C]4 | [F,A,C]3 [F,A,C] [F,A,C]2 [E,G,]2 | [D,A,D]2 C,2 F,4 | %6
 G,2 G,2 C,2 C,2 | F,6 z2 | [B,,B,]3 [B,,B,] [D,B,]2 [B,,B,]2 | [F,A,F]2 [F,A,F]2 [F,CF]4 | %10
 [C,C]3 [C,C] [C,C]2 [C,C]2 | [F,CF]2 [F,B,F]2 [F,A,F]4 | [B,,B,]3 [B,,C] [B,,D]2 [D,B,]2 | %13
 z4 C2 z2 | [B,DF]2 [G,=B,F]2 [CF]2[K:bass] [C,_B,]2 | [F,A,]6 z2 |] %16
V:3
 x8 | x8 | x8 | x8 | x8 | x8 | x8 | z2 E,2 D,2 C,2 | x8 | x8 | x8 | x8 | x8 | %13
 [F,A,F]2 [G,B,E]2 [F,F]4 | x6[K:bass] x2 | x8 |] %16
V:4
 x8 | x8 | x8 | x8 | x8 | x8 | x8 | x8 | x8 | x8 | x8 | x8 | x8 | z4 A4 | x8 | x8 |] %16

